actions/22x22-light/filename-space-amarok.svg

<svg xmlns="http://www.w3.org/2000/svg" viewBox="0 0 22 22">
 <defs id="defs3051">
   <style type="text/css" id="current-color-scheme">
     .ColorScheme-Text {
       color:#4d4d4d;
     }
     </style>
 </defs>
   <path
      style="fill:currentColor;fill-opacity:1;stroke:none"
      d="m5 15v1 1h11v-1-1h-1v1h-9v-1z"
      class="ColorScheme-Text" />
</svg>

<svg xmlns="http://www.w3.org/2000/svg" viewBox="0 0 22 22">
  <defs id="defs3051">
    <style type="text/css" id="current-color-scheme">
      .ColorScheme-Text {
        color:#4d4d4d
      }
      </style>
  </defs>
 <path 
     style="fill:currentColor;fill-opacity:1;stroke:none"      
        d="M 5 15 L 5 16 L 5 17 L 16 17 L 16 16 L 16 15 L 15 15 L 15 16 L 6 16 L 6 15 L 5 15 z "
	 class="ColorScheme-Text"
     />
</svg>
